dist/assets/img/header/logo(last).svg

<svg width="275" height="45" viewBox="0 0 275 45" fill="none" xmlns="http://www.w3.org/2000/svg">
<path d="M31.084 16.388H7.756V19.772H32.02V26H0.700002V0.800003H31.948V7.028H7.756V10.376H31.084V16.388Z" fill="#101010"/>
<path d="M59.2352 0.800003L75.0752 26H66.7952L63.9512 21.32H47.1752L44.3672 26H36.0872L51.9272 0.800003H59.2352ZM55.5632 7.388L50.4872 15.812H60.6392L55.5632 7.388Z" fill="#101010"/>
<path d="M104.579 26H79.2348V19.772H104.327C104.567 19.772 104.759 19.7 104.903 19.556C105.071 19.412 105.155 19.22 105.155 18.98V17.18C105.155 16.94 105.071 16.748 104.903 16.604C104.759 16.46 104.567 16.388 104.327 16.388H85.7508C83.3268 16.388 81.4428 15.812 80.0988 14.66C78.7788 13.508 78.1188 11.888 78.1188 9.8V7.424C78.1188 5.336 78.7908 3.716 80.1348 2.564C81.4788 1.388 83.3508 0.800003 85.7508 0.800003H110.195V7.028H86.0028C85.7628 7.028 85.5588 7.1 85.3908 7.244C85.2468 7.388 85.1748 7.58 85.1748 7.82V9.584C85.1748 9.824 85.2468 10.016 85.3908 10.16C85.5588 10.304 85.7628 10.376 86.0028 10.376H104.579C106.979 10.376 108.851 10.964 110.195 12.14C111.539 13.292 112.211 14.9 112.211 16.964V19.448C112.211 21.512 111.539 23.12 110.195 24.272C108.851 25.424 106.979 26 104.579 26Z" fill="#101010"/>
<path d="M115.052 0.800003H124.088L134.024 12.032L143.96 0.800003H152.996L137.552 17.648V26H130.496V17.648L115.052 0.800003Z" fill="#101010"/>
<path d="M206.001 0.800003L193.077 26H188.145L180.729 10.124L173.313 26H168.381L155.457 0.800003H163.737L170.721 16.1L177.669 0.800003H183.789L190.737 16.1L197.721 0.800003H206.001Z" fill="#101010"/>
<path d="M226.149 0.800003L241.989 26H233.709L230.865 21.32H214.089L211.281 26H203.001L218.841 0.800003H226.149ZM222.477 7.388L217.401 15.812H227.553L222.477 7.388Z" fill="#101010"/>
<path d="M236.388 0.800003H245.424L255.36 12.032L265.296 0.800003H274.332L258.888 17.648V26H251.832V17.648L236.388 0.800003Z" fill="#101010"/>
<path d="M0.218002 42V32.2H9.15V42H6.896V33.53L7.414 34.048H1.954L2.472 33.53V42H0.218002Z" fill="#101010"/>
<path d="M17.1093 42.168C16.3347 42.168 15.616 42.042 14.9533 41.79C14.3 41.538 13.7307 41.1833 13.2453 40.726C12.7693 40.2687 12.396 39.732 12.1253 39.116C11.864 38.5 11.7333 37.828 11.7333 37.1C11.7333 36.372 11.864 35.7 12.1253 35.084C12.396 34.468 12.774 33.9313 13.2593 33.474C13.7447 33.0167 14.314 32.662 14.9673 32.41C15.6207 32.158 16.33 32.032 17.0953 32.032C17.87 32.032 18.5793 32.158 19.2233 32.41C19.8767 32.662 20.4413 33.0167 20.9173 33.474C21.4027 33.9313 21.7807 34.468 22.0513 35.084C22.322 35.6907 22.4573 36.3627 22.4573 37.1C22.4573 37.828 22.322 38.5047 22.0513 39.13C21.7807 39.746 21.4027 40.2827 20.9173 40.74C20.4413 41.188 19.8767 41.538 19.2233 41.79C18.5793 42.042 17.8747 42.168 17.1093 42.168ZM17.0953 40.236C17.534 40.236 17.9353 40.1613 18.2993 40.012C18.6727 39.8627 18.9993 39.648 19.2793 39.368C19.5593 39.088 19.774 38.7567 19.9233 38.374C20.082 37.9913 20.1613 37.5667 20.1613 37.1C20.1613 36.6333 20.082 36.2087 19.9233 35.826C19.774 35.4433 19.5593 35.112 19.2793 34.832C19.0087 34.552 18.6867 34.3373 18.3133 34.188C17.94 34.0387 17.534 33.964 17.0953 33.964C16.6567 33.964 16.2507 34.0387 15.8773 34.188C15.5133 34.3373 15.1913 34.552 14.9113 34.832C14.6313 35.112 14.412 35.4433 14.2533 35.826C14.104 36.2087 14.0293 36.6333 14.0293 37.1C14.0293 37.5573 14.104 37.982 14.2533 38.374C14.412 38.7567 14.6267 39.088 14.8973 39.368C15.1773 39.648 15.504 39.8627 15.8773 40.012C16.2507 40.1613 16.6567 40.236 17.0953 40.236Z" fill="#101010"/>
<path d="M31.267 40.992V34.048H27.907L27.865 35.476C27.837 36.0827 27.795 36.6567 27.739 37.198C27.6924 37.7393 27.6177 38.234 27.515 38.682C27.4124 39.1207 27.277 39.494 27.109 39.802C26.9504 40.11 26.7497 40.3293 26.507 40.46L24.085 40.152C24.421 40.1613 24.6964 40.0447 24.911 39.802C25.135 39.5593 25.3124 39.2187 25.4431 38.78C25.5737 38.332 25.667 37.8093 25.723 37.212C25.7884 36.6147 25.8351 35.966 25.8631 35.266L25.975 32.2H33.507V40.992H31.267ZM23.7631 44.03L23.7771 40.152H34.8791V44.03H32.779V42H25.8631V44.03H23.7631Z" fill="#101010"/>
<path d="M43.3317 35.42C44.5077 35.42 45.4177 35.686 46.0617 36.218C46.7057 36.7407 47.0277 37.5293 47.0277 38.584C47.0277 39.704 46.6683 40.5533 45.9497 41.132C45.2403 41.7107 44.2557 42 42.9957 42H38.5857V34.048H35.8277V32.2H40.8257V35.42H43.3317ZM42.8697 40.32C43.4577 40.32 43.915 40.1753 44.2417 39.886C44.5777 39.5967 44.7457 39.1767 44.7457 38.626C44.7457 38.0847 44.5777 37.6973 44.2417 37.464C43.915 37.2213 43.4577 37.1 42.8697 37.1H40.8257V40.32H42.8697Z" fill="#101010"/>
<path d="M51.5878 36.148H56.3058V37.912H51.5878V36.148ZM51.7558 40.18H57.0898V42H49.5018V32.2H56.9078V34.02H51.7558V40.18Z" fill="#101010"/>
<path d="M59.7618 42V32.2H61.6378L65.8098 39.116H64.8158L68.9178 32.2H70.7938L70.8078 42H68.6798L68.6658 35.462H69.0718L65.7818 40.964H64.7738L61.4138 35.462H61.8898V42H59.7618Z" fill="#101010"/>
<path d="M80.8022 32.2H83.0702V42H80.8022V32.2ZM76.3502 42H74.0822V32.2H76.3502V42ZM80.9702 37.982H76.1822V36.064H80.9702V37.982Z" fill="#101010"/>
<path d="M86.3656 42V32.2H88.6196V38.584L93.2956 32.2H95.4236V42H93.1836V35.63L88.5076 42H86.3656Z" fill="#101010"/>
<path d="M105.046 42L101.994 37.282L103.828 36.176L107.622 42H105.046ZM98.6756 42V32.2H100.93V42H98.6756ZM100.272 38.052V36.162H103.688V38.052H100.272ZM104.038 37.352L101.952 37.1L105.13 32.2H107.524L104.038 37.352Z" fill="#101010"/>
<path d="M109.524 42V32.2H111.778V38.584L116.454 32.2H118.582V42H116.342V35.63L111.666 42H109.524Z" fill="#101010"/>
<path d="M133.163 40.992V34.048H129.803L129.761 35.476C129.733 36.0827 129.691 36.6567 129.635 37.198C129.588 37.7393 129.514 38.234 129.411 38.682C129.308 39.1207 129.173 39.494 129.005 39.802C128.846 40.11 128.646 40.3293 128.403 40.46L125.981 40.152C126.317 40.1613 126.592 40.0447 126.807 39.802C127.031 39.5593 127.208 39.2187 127.339 38.78C127.47 38.332 127.563 37.8093 127.619 37.212C127.684 36.6147 127.731 35.966 127.759 35.266L127.871 32.2H135.403V40.992H133.163ZM125.659 44.03L125.673 40.152H136.775V44.03H134.675V42H127.759V44.03H125.659Z" fill="#101010"/>
<path d="M139.24 42.154C139.072 42.154 138.894 42.14 138.708 42.112C138.53 42.084 138.334 42.0467 138.12 42L138.26 40.082C138.39 40.1193 138.526 40.138 138.666 40.138C139.048 40.138 139.347 39.984 139.562 39.676C139.776 39.3587 139.93 38.906 140.024 38.318C140.117 37.73 140.178 37.016 140.206 36.176L140.346 32.2H147.878V42H145.638V33.53L146.156 34.048H141.83L142.292 33.502L142.208 36.092C142.18 37.0533 142.114 37.9073 142.012 38.654C141.909 39.4007 141.75 40.0353 141.536 40.558C141.321 41.0807 141.027 41.4773 140.654 41.748C140.28 42.0187 139.809 42.154 139.24 42.154Z" fill="#101010"/>
<path d="M156.751 42V38.906L157.311 39.396H154.623C153.774 39.396 153.041 39.256 152.425 38.976C151.809 38.696 151.338 38.29 151.011 37.758C150.685 37.226 150.521 36.5913 150.521 35.854C150.521 35.0887 150.694 34.4353 151.039 33.894C151.394 33.3433 151.889 32.9233 152.523 32.634C153.158 32.3447 153.905 32.2 154.763 32.2H158.991V42H156.751ZM150.549 42L152.985 38.486H155.281L152.943 42H150.549ZM156.751 38.178V33.46L157.311 34.048H154.819C154.175 34.048 153.681 34.1973 153.335 34.496C152.999 34.7947 152.831 35.238 152.831 35.826C152.831 36.3953 152.995 36.834 153.321 37.142C153.648 37.45 154.129 37.604 154.763 37.604H157.311L156.751 38.178Z" fill="#101010"/>
<path d="M167.091 42V32.2H169.345V38.584L174.021 32.2H176.149V42H173.909V35.63L169.233 42H167.091Z" fill="#101010"/>
<path d="M186.149 32.2H188.417V42H186.149V32.2ZM181.697 42H179.429V32.2H181.697V42ZM186.317 37.982H181.529V36.064H186.317V37.982Z" fill="#101010"/>
<path d="M191.713 42V32.2H196.277C197.416 32.2 198.302 32.4193 198.937 32.858C199.572 33.2967 199.889 33.922 199.889 34.734C199.889 35.5367 199.59 36.162 198.993 36.61C198.396 37.0487 197.602 37.268 196.613 37.268L196.879 36.68C197.98 36.68 198.834 36.8993 199.441 37.338C200.048 37.7767 200.351 38.4113 200.351 39.242C200.351 40.1007 200.024 40.7773 199.371 41.272C198.727 41.7573 197.784 42 196.543 42H191.713ZM193.967 40.32H196.459C196.982 40.32 197.378 40.2173 197.649 40.012C197.92 39.8067 198.055 39.4893 198.055 39.06C198.055 38.6493 197.92 38.346 197.649 38.15C197.378 37.9447 196.982 37.842 196.459 37.842H193.967V40.32ZM193.967 36.26H196.081C196.576 36.26 196.949 36.162 197.201 35.966C197.453 35.7607 197.579 35.462 197.579 35.07C197.579 34.678 197.453 34.384 197.201 34.188C196.949 33.9827 196.576 33.88 196.081 33.88H193.967V36.26Z" fill="#101010"/>
<path d="M201.878 42L206.246 32.2H208.486L212.868 42H210.488L206.904 33.348H207.8L204.202 42H201.878ZM204.062 39.9L204.664 38.178H209.704L210.32 39.9H204.062Z" fill="#101010"/>
<path d="M215.161 42.154C214.993 42.154 214.815 42.14 214.629 42.112C214.451 42.084 214.255 42.0467 214.041 42L214.181 40.082C214.311 40.1193 214.447 40.138 214.587 40.138C214.969 40.138 215.268 39.984 215.483 39.676C215.697 39.3587 215.851 38.906 215.945 38.318C216.038 37.73 216.099 37.016 216.127 36.176L216.267 32.2H223.799V42H221.559V33.53L222.077 34.048H217.751L218.213 33.502L218.129 36.092C218.101 37.0533 218.035 37.9073 217.933 38.654C217.83 39.4007 217.671 40.0353 217.457 40.558C217.242 41.0807 216.948 41.4773 216.575 41.748C216.201 42.0187 215.73 42.154 215.161 42.154Z" fill="#101010"/>
<path d="M227.086 42V32.2H229.34V38.584L234.016 32.2H236.144V42H233.904V35.63L229.228 42H227.086Z" fill="#101010"/>
<path d="M245.852 40.992V34.048H242.492L242.45 35.476C242.422 36.0827 242.38 36.6567 242.324 37.198C242.277 37.7393 242.203 38.234 242.1 38.682C241.997 39.1207 241.862 39.494 241.694 39.802C241.535 40.11 241.335 40.3293 241.092 40.46L238.67 40.152C239.006 40.1613 239.281 40.0447 239.496 39.802C239.72 39.5593 239.897 39.2187 240.028 38.78C240.159 38.332 240.252 37.8093 240.308 37.212C240.373 36.6147 240.42 35.966 240.448 35.266L240.56 32.2H248.092V40.992H245.852ZM238.348 44.03L238.362 40.152H249.464V44.03H247.364V42H240.448V44.03H238.348Z" fill="#101010"/>
<path d="M256.521 42.168C255.746 42.168 255.027 42.042 254.365 41.79C253.711 41.538 253.142 41.1833 252.657 40.726C252.181 40.2687 251.807 39.732 251.537 39.116C251.275 38.5 251.145 37.828 251.145 37.1C251.145 36.372 251.275 35.7 251.537 35.084C251.807 34.468 252.185 33.9313 252.671 33.474C253.156 33.0167 253.725 32.662 254.379 32.41C255.032 32.158 255.741 32.032 256.507 32.032C257.281 32.032 257.991 32.158 258.635 32.41C259.288 32.662 259.853 33.0167 260.329 33.474C260.814 33.9313 261.192 34.468 261.463 35.084C261.733 35.6907 261.869 36.3627 261.869 37.1C261.869 37.828 261.733 38.5047 261.463 39.13C261.192 39.746 260.814 40.2827 260.329 40.74C259.853 41.188 259.288 41.538 258.635 41.79C257.991 42.042 257.286 42.168 256.521 42.168ZM256.507 40.236C256.945 40.236 257.347 40.1613 257.711 40.012C258.084 39.8627 258.411 39.648 258.691 39.368C258.971 39.088 259.185 38.7567 259.335 38.374C259.493 37.9913 259.573 37.5667 259.573 37.1C259.573 36.6333 259.493 36.2087 259.335 35.826C259.185 35.4433 258.971 35.112 258.691 34.832C258.42 34.552 258.098 34.3373 257.725 34.188C257.351 34.0387 256.945 33.964 256.507 33.964C256.068 33.964 255.662 34.0387 255.289 34.188C254.925 34.3373 254.603 34.552 254.323 34.832C254.043 35.112 253.823 35.4433 253.665 35.826C253.515 36.2087 253.441 36.6333 253.441 37.1C253.441 37.5573 253.515 37.982 253.665 38.374C253.823 38.7567 254.038 39.088 254.309 39.368C254.589 39.648 254.915 39.8627 255.289 40.012C255.662 40.1613 256.068 40.236 256.507 40.236Z" fill="#101010"/>
<path d="M264.456 42V32.2H269.02C270.159 32.2 271.045 32.4193 271.68 32.858C272.315 33.2967 272.632 33.922 272.632 34.734C272.632 35.5367 272.333 36.162 271.736 36.61C271.139 37.0487 270.345 37.268 269.356 37.268L269.622 36.68C270.723 36.68 271.577 36.8993 272.184 37.338C272.791 37.7767 273.094 38.4113 273.094 39.242C273.094 40.1007 272.767 40.7773 272.114 41.272C271.47 41.7573 270.527 42 269.286 42H264.456ZM266.71 40.32H269.202C269.725 40.32 270.121 40.2173 270.392 40.012C270.663 39.8067 270.798 39.4893 270.798 39.06C270.798 38.6493 270.663 38.346 270.392 38.15C270.121 37.9447 269.725 37.842 269.202 37.842H266.71V40.32ZM266.71 36.26H268.824C269.319 36.26 269.692 36.162 269.944 35.966C270.196 35.7607 270.322 35.462 270.322 35.07C270.322 34.678 270.196 34.384 269.944 34.188C269.692 33.9827 269.319 33.88 268.824 33.88H266.71V36.26Z" fill="#101010"/>
</svg>

<svg width="275" height="45" fill="none" xmlns="http://www.w3.org/2000/svg"><path d="M31.084 16.388H7.756v3.384H32.02V26H.7V.8h31.248v6.228H7.756v3.348h23.328v6.012zM59.235.8L75.075 26h-8.28l-2.844-4.68H47.175L44.367 26h-8.28L51.927.8h7.308zm-3.672 6.588l-5.076 8.424H60.64l-5.076-8.424zM104.579 26H79.235v-6.228h25.092c.24 0 .432-.072.576-.216a.72.72 0 00.252-.576v-1.8a.72.72 0 00-.252-.576c-.144-.144-.336-.216-.576-.216H85.751c-2.424 0-4.308-.576-5.652-1.728-1.32-1.152-1.98-2.772-1.98-4.86V7.424c0-2.088.672-3.708 2.016-4.86C81.479 1.388 83.35.8 85.75.8h24.444v6.228H86.003a.908.908 0 00-.612.216c-.144.144-.216.336-.216.576v1.764c0 .24.072.432.216.576a.908.908 0 00.612.216h18.576c2.4 0 4.272.588 5.616 1.764 1.344 1.152 2.016 2.76 2.016 4.824v2.484c0 2.064-.672 3.672-2.016 4.824-1.344 1.152-3.216 1.728-5.616 1.728zM115.052.8h9.036l9.936 11.232L143.96.8h9.036l-15.444 16.848V26h-7.056v-8.352L115.052.8zm90.949 0L193.077 26h-4.932l-7.416-15.876L173.313 26h-4.932L155.457.8h8.28l6.984 15.3L177.669.8h6.12l6.948 15.3L197.721.8h8.28zm20.148 0l15.84 25.2h-8.28l-2.844-4.68h-16.776L211.281 26h-8.28L218.841.8h7.308zm-3.672 6.588l-5.076 8.424h10.152l-5.076-8.424zM236.388.8h9.036l9.936 11.232L265.296.8h9.036l-15.444 16.848V26h-7.056v-8.352L236.388.8zM.218 42v-9.8H9.15V42H6.896v-8.47l.518.518h-5.46l.518-.518V42H.218zm16.892.168a6.017 6.017 0 01-2.157-.378 5.18 5.18 0 01-1.708-1.064 4.996 4.996 0 01-1.12-1.61 5.11 5.11 0 01-.392-2.016c0-.728.131-1.4.392-2.016a4.895 4.895 0 011.134-1.61 5.18 5.18 0 011.708-1.064 5.864 5.864 0 012.128-.378c.775 0 1.484.126 2.128.378a5.023 5.023 0 011.694 1.064 4.893 4.893 0 011.54 3.626c0 .728-.135 1.405-.406 2.03a4.892 4.892 0 01-1.134 1.61 5.139 5.139 0 01-1.694 1.05 5.752 5.752 0 01-2.114.378zm-.015-1.932c.439 0 .84-.075 1.204-.224a2.856 2.856 0 001.624-1.638 3.29 3.29 0 00.238-1.274 3.29 3.29 0 00-.238-1.274 2.856 2.856 0 00-.644-.994 2.741 2.741 0 00-.966-.644 3.25 3.25 0 00-1.218-.224 3.25 3.25 0 00-1.218.224c-.364.15-.686.364-.966.644-.28.28-.499.611-.658.994a3.484 3.484 0 00-.224 1.274c0 .457.075.882.224 1.274.159.383.374.714.644.994.28.28.607.495.98.644.374.15.78.224 1.218.224zm14.172.756v-6.944h-3.36l-.042 1.428c-.028.607-.07 1.18-.126 1.722a10.813 10.813 0 01-.224 1.484 4.464 4.464 0 01-.406 1.12c-.159.308-.36.527-.602.658l-2.422-.308c.336.01.611-.107.826-.35.224-.243.401-.583.532-1.022.13-.448.224-.97.28-1.568a28.61 28.61 0 00.14-1.946l.112-3.066h7.532v8.792h-2.24zm-7.504 3.038l.014-3.878H34.88v3.878h-2.1V42h-6.916v2.03h-2.1zm19.569-8.61c1.176 0 2.086.266 2.73.798.644.523.966 1.311.966 2.366 0 1.12-.36 1.97-1.078 2.548-.71.579-1.694.868-2.954.868h-4.41v-7.952h-2.758V32.2h4.998v3.22h2.506zm-.462 4.9c.588 0 1.045-.145 1.372-.434.336-.29.504-.71.504-1.26 0-.541-.168-.929-.504-1.162-.327-.243-.784-.364-1.372-.364h-2.044v3.22h2.044zm8.718-4.172h4.718v1.764h-4.718v-1.764zm.168 4.032h5.334V42h-7.588v-9.8h7.406v1.82h-5.152v6.16zM59.762 42v-9.8h1.876l4.172 6.916h-.994l4.102-6.916h1.876l.014 9.8H68.68l-.014-6.538h.406l-3.29 5.502h-1.008l-3.36-5.502h.476V42h-2.128zm21.04-9.8h2.268V42h-2.268v-9.8zM76.35 42h-2.268v-9.8h2.268V42zm4.62-4.018h-4.788v-1.918h4.788v1.918zM86.366 42v-9.8h2.254v6.384l4.676-6.384h2.128V42h-2.24v-6.37L88.508 42h-2.142zm18.68 0l-3.052-4.718 1.834-1.106L107.622 42h-2.576zm-6.37 0v-9.8h2.254V42h-2.254zm1.596-3.948v-1.89h3.416v1.89h-3.416zm3.766-.7l-2.086-.252 3.178-4.9h2.394l-3.486 5.152zM109.524 42v-9.8h2.254v6.384l4.676-6.384h2.128V42h-2.24v-6.37L111.666 42h-2.142zm23.639-1.008v-6.944h-3.36l-.042 1.428c-.028.607-.07 1.18-.126 1.722a10.829 10.829 0 01-.224 1.484 4.48 4.48 0 01-.406 1.12c-.159.308-.359.527-.602.658l-2.422-.308c.336.01.611-.107.826-.35.224-.243.401-.583.532-1.022.131-.448.224-.97.28-1.568a28.61 28.61 0 00.14-1.946l.112-3.066h7.532v8.792h-2.24zm-7.504 3.038l.014-3.878h11.102v3.878h-2.1V42h-6.916v2.03h-2.1zm13.581-1.876c-.168 0-.346-.014-.532-.042a10.244 10.244 0 01-.588-.112l.14-1.918c.13.037.266.056.406.056.382 0 .681-.154.896-.462.214-.317.368-.77.462-1.358.093-.588.154-1.302.182-2.142l.14-3.976h7.532V42h-2.24v-8.47l.518.518h-4.326l.462-.546-.084 2.59a24.338 24.338 0 01-.196 2.562c-.103.747-.262 1.381-.476 1.904-.215.523-.509.92-.882 1.19-.374.27-.845.406-1.414.406zM156.751 42v-3.094l.56.49h-2.688c-.849 0-1.582-.14-2.198-.42-.616-.28-1.087-.686-1.414-1.218-.326-.532-.49-1.167-.49-1.904 0-.765.173-1.419.518-1.96.355-.55.85-.97 1.484-1.26.635-.29 1.382-.434 2.24-.434h4.228V42h-2.24zm-6.202 0l2.436-3.514h2.296L152.943 42h-2.394zm6.202-3.822V33.46l.56.588h-2.492c-.644 0-1.138.15-1.484.448-.336.299-.504.742-.504 1.33 0 .57.164 1.008.49 1.316.327.308.808.462 1.442.462h2.548l-.56.574zM167.091 42v-9.8h2.254v6.384l4.676-6.384h2.128V42h-2.24v-6.37L169.233 42h-2.142zm19.058-9.8h2.268V42h-2.268v-9.8zm-4.452 9.8h-2.268v-9.8h2.268V42zm4.62-4.018h-4.788v-1.918h4.788v1.918zM191.713 42v-9.8h4.564c1.139 0 2.025.22 2.66.658.635.439.952 1.064.952 1.876 0 .803-.299 1.428-.896 1.876-.597.439-1.391.658-2.38.658l.266-.588c1.101 0 1.955.22 2.562.658.607.439.91 1.073.91 1.904 0 .859-.327 1.535-.98 2.03-.644.485-1.587.728-2.828.728h-4.83zm2.254-1.68h2.492c.523 0 .919-.103 1.19-.308.271-.205.406-.523.406-.952 0-.41-.135-.714-.406-.91-.271-.205-.667-.308-1.19-.308h-2.492v2.478zm0-4.06h2.114c.495 0 .868-.098 1.12-.294.252-.205.378-.504.378-.896s-.126-.686-.378-.882c-.252-.205-.625-.308-1.12-.308h-2.114v2.38zm7.911 5.74l4.368-9.8h2.24l4.382 9.8h-2.38l-3.584-8.652h.896L204.202 42h-2.324zm2.184-2.1l.602-1.722h5.04l.616 1.722h-6.258zm11.099 2.254c-.168 0-.346-.014-.532-.042a10.244 10.244 0 01-.588-.112l.14-1.918c.13.037.266.056.406.056.382 0 .681-.154.896-.462.214-.317.368-.77.462-1.358.093-.588.154-1.302.182-2.142l.14-3.976h7.532V42h-2.24v-8.47l.518.518h-4.326l.462-.546-.084 2.59a24.338 24.338 0 01-.196 2.562c-.103.747-.262 1.381-.476 1.904-.215.523-.509.92-.882 1.19-.374.27-.845.406-1.414.406zM227.086 42v-9.8h2.254v6.384l4.676-6.384h2.128V42h-2.24v-6.37L229.228 42h-2.142zm18.766-1.008v-6.944h-3.36l-.042 1.428c-.028.607-.07 1.18-.126 1.722a10.829 10.829 0 01-.224 1.484 4.48 4.48 0 01-.406 1.12c-.159.308-.359.527-.602.658l-2.422-.308c.336.01.611-.107.826-.35.224-.243.401-.583.532-1.022.131-.448.224-.97.28-1.568a28.61 28.61 0 00.14-1.946l.112-3.066h7.532v8.792h-2.24zm-7.504 3.038l.014-3.878h11.102v3.878h-2.1V42h-6.916v2.03h-2.1zm18.173-1.862a6.012 6.012 0 01-2.156-.378 5.169 5.169 0 01-1.708-1.064 4.985 4.985 0 01-1.12-1.61 5.097 5.097 0 01-.392-2.016c0-.728.13-1.4.392-2.016a4.874 4.874 0 011.134-1.61 5.169 5.169 0 011.708-1.064 5.86 5.86 0 012.128-.378c.774 0 1.484.126 2.128.378a5.026 5.026 0 011.694 1.064 4.9 4.9 0 011.134 1.61c.27.607.406 1.279.406 2.016 0 .728-.136 1.405-.406 2.03a4.903 4.903 0 01-1.134 1.61 5.143 5.143 0 01-1.694 1.05 5.754 5.754 0 01-2.114.378zm-.014-1.932c.438 0 .84-.075 1.204-.224a2.865 2.865 0 001.624-1.638c.158-.383.238-.807.238-1.274 0-.467-.08-.891-.238-1.274a2.865 2.865 0 00-.644-.994 2.748 2.748 0 00-.966-.644 3.255 3.255 0 00-1.218-.224c-.439 0-.845.075-1.218.224-.364.15-.686.364-.966.644-.28.28-.5.611-.658.994-.15.383-.224.807-.224 1.274 0 .457.074.882.224 1.274.158.383.373.714.644.994.28.28.606.495.98.644.373.15.779.224 1.218.224zM264.456 42v-9.8h4.564c1.139 0 2.025.22 2.66.658.635.439.952 1.064.952 1.876 0 .803-.299 1.428-.896 1.876-.597.439-1.391.658-2.38.658l.266-.588c1.101 0 1.955.22 2.562.658.607.439.91 1.073.91 1.904 0 .859-.327 1.535-.98 2.03-.644.485-1.587.728-2.828.728h-4.83zm2.254-1.68h2.492c.523 0 .919-.103 1.19-.308.271-.205.406-.523.406-.952 0-.41-.135-.714-.406-.91-.271-.205-.667-.308-1.19-.308h-2.492v2.478zm0-4.06h2.114c.495 0 .868-.098 1.12-.294.252-.205.378-.504.378-.896s-.126-.686-.378-.882c-.252-.205-.625-.308-1.12-.308h-2.114v2.38z" fill="#101010"/></svg>
